apps/service-portal/src/assets/images/settings.svg

<svg width="47" height="67" viewBox="0 0 47 67" fill="none" xmlns="http://www.w3.org/2000/svg">
<path d="M1.86894 3.89511C2.72745 3.89511 3.42342 3.19914 3.42342 2.34062C3.42342 1.4821 2.72745 0.786133 1.86894 0.786133C1.01042 0.786133 0.314453 1.4821 0.314453 2.34062C0.314453 3.19914 1.01042 3.89511 1.86894 3.89511Z" fill="#0061FF"/>
<path d="M33.7146 66.2828C34.5732 66.2828 35.2691 65.5868 35.2691 64.7283C35.2691 63.8698 34.5732 63.1738 33.7146 63.1738C32.8561 63.1738 32.1602 63.8698 32.1602 64.7283C32.1602 65.5868 32.8561 66.2828 33.7146 66.2828Z" fill="#0061FF"/>
<path d="M34.9229 13.0062C31.4812 14.3787 30.7924 17.1653 30.5948 20.2483C30.3972 23.3313 30.1711 25.5486 26.9555 28.2365C22.4688 31.9875 24.3119 39.253 30.9379 40.5736C30.9379 40.5736 38.5102 37.7427 40.6366 28.2365C42.7629 18.7302 34.9229 13.0062 34.9229 13.0062ZM7.73242 25.3718C7.73242 25.3718 12.3153 28.1481 17.2257 25.9853C22.1361 23.8226 19.1389 18.0179 21.0313 15.3613C22.9237 12.7046 25.7754 12.4109 26.563 9.06535C26.563 9.06535 18.6164 7.72402 13.3967 13.0036C8.17693 18.2831 7.73242 25.3718 7.73242 25.3718ZM15.1539 30.4122C13.5526 31.1739 13.4825 33.4354 15.8428 35.0705C18.2031 36.7055 20.7142 33.6564 21.0339 31.9849C21.3511 30.3134 19.2845 28.4444 15.1539 30.4122Z" fill="url(#paint0_linear)"/>
<path d="M24.3131 42.3411C14.955 42.3411 7.34375 34.7298 7.34375 25.3717C7.34375 16.0136 14.955 8.40234 24.3131 8.40234C33.6712 8.40234 41.2825 16.0136 41.2825 25.3717C41.2825 34.7298 33.6712 42.3411 24.3131 42.3411ZM24.3131 9.18219C15.3865 9.18219 8.12359 16.4451 8.12359 25.3717C8.12359 34.2983 15.3865 41.5612 24.3131 41.5612C33.2397 41.5612 40.5026 34.2983 40.5026 25.3717C40.5026 16.4451 33.2397 9.18219 24.3131 9.18219Z" fill="#6A2EA0"/>
<path d="M29.5266 49.3779H19.0429C18.0422 49.3779 17.2285 50.189 17.2285 51.1924V52.1256H31.3411V51.1924C31.3411 50.189 30.5274 49.3779 29.5266 49.3779Z" fill="#6A2EA0"/>
<path d="M24.2845 50.4803C24.0687 50.4803 23.8945 50.3062 23.8945 50.0904V41.9514C23.8945 41.7357 24.0687 41.5615 24.2845 41.5615C24.5002 41.5615 24.6744 41.7357 24.6744 41.9514V50.0904C24.6744 50.3062 24.5002 50.4803 24.2845 50.4803Z" fill="#6A2EA0"/>
<path d="M24.1415 46.4746C12.4829 46.4746 3 36.9891 3 25.333C3 19.5362 5.29794 14.1293 9.47529 10.1079C9.63126 9.95976 9.87821 9.96236 10.0264 10.1183C10.1771 10.2743 10.1719 10.5212 10.016 10.6694C5.99459 14.5426 3.77984 19.7494 3.77984 25.333C3.77984 36.5602 12.9144 45.6947 24.1415 45.6947C29.5094 45.6947 34.5732 43.6255 38.4048 39.8667C38.5582 39.7159 38.8051 39.7185 38.9559 39.8719C39.1067 40.0253 39.1041 40.2722 38.9507 40.423C34.9735 44.3248 29.7148 46.4746 24.1415 46.4746Z" fill="#6A2EA0"/>
<path d="M40.466 42.3414C40.3646 42.3414 40.2633 42.3024 40.1853 42.2244L35.6024 37.5168C35.4516 37.3634 35.4568 37.1164 35.6102 36.9657C35.7636 36.8149 36.0105 36.8201 36.1613 36.9735L40.7442 41.6811C40.8949 41.8345 40.8897 42.0814 40.7364 42.2322C40.661 42.305 40.5622 42.3414 40.466 42.3414Z" fill="#6A2EA0"/>
<path d="M12.7575 13.8741C12.6561 13.8741 12.5548 13.8351 12.4768 13.7571L7.452 8.59196C7.30123 8.43859 7.30643 8.19164 7.4598 8.04087C7.61317 7.8901 7.86012 7.8953 8.01089 8.04867L13.0383 13.2112C13.189 13.3646 13.1838 13.6115 13.0305 13.7623C12.9551 13.8377 12.8563 13.8741 12.7575 13.8741Z" fill="#6A2EA0"/>
<path d="M46.1934 52.5152H8.72976C8.51401 52.5152 8.33984 52.341 8.33984 52.1253C8.33984 51.9095 8.51401 51.7354 8.72976 51.7354H46.1934C46.4091 51.7354 46.5833 51.9095 46.5833 52.1253C46.5833 52.341 46.4065 52.5152 46.1934 52.5152Z" fill="#6A2EA0"/>
<defs>
<linearGradient id="paint0_linear" x1="24.3692" y1="8.91541" x2="24.3692" y2="40.5726" gradientUnits="userSpaceOnUse">
<stop stop-color="#FF4C84"/>
<stop offset="0.6079" stop-color="#9077D1"/>
<stop offset="1" stop-color="#4C90FF"/>
</linearGradient>
</defs>
</svg>

<svg width="47" height="67" fill="none" xmlns="http://www.w3.org/2000/svg"><path d="M1.869 3.895a1.554 1.554 0 1 0 0-3.109 1.554 1.554 0 0 0 0 3.11ZM33.715 66.283a1.554 1.554 0 1 0 0-3.11 1.554 1.554 0 0 0 0 3.11Z" fill="#0061FF"/><path d="M34.923 13.006c-3.442 1.373-4.13 4.16-4.328 7.242-.198 3.083-.424 5.3-3.64 7.988-4.486 3.752-2.643 11.017 3.983 12.338 0 0 7.572-2.831 9.699-12.337 2.126-9.507-5.714-15.23-5.714-15.23ZM7.733 25.372s4.582 2.776 9.493.613c4.91-2.162 1.913-7.967 3.805-10.624 1.893-2.656 4.744-2.95 5.532-6.296 0 0-7.947-1.341-13.166 3.939-5.22 5.28-5.665 12.368-5.665 12.368Zm7.42 5.04c-1.6.762-1.67 3.023.69 4.659 2.36 1.635 4.871-1.415 5.19-3.086.318-1.672-1.748-3.54-5.88-1.573Z" fill="url(#a)"/><path d="M24.313 42.341c-9.358 0-16.97-7.611-16.97-16.97 0-9.357 7.612-16.969 16.97-16.969 9.358 0 16.97 7.612 16.97 16.97 0 9.358-7.612 16.97-16.97 16.97Zm0-33.159c-8.926 0-16.19 7.263-16.19 16.19 0 8.926 7.264 16.19 16.19 16.19 8.927 0 16.19-7.264 16.19-16.19 0-8.927-7.263-16.19-16.19-16.19ZM29.527 49.378H19.043c-1 0-1.814.811-1.814 1.814v.934H31.34v-.934a1.815 1.815 0 0 0-1.814-1.814Z" fill="#6A2EA0"/><path d="M24.285 50.48a.39.39 0 0 1-.39-.39v-8.139a.39.39 0 1 1 .78 0v8.14a.39.39 0 0 1-.39.39Z" fill="#6A2EA0"/><path d="M24.142 46.475C12.482 46.475 3 36.989 3 25.333c0-5.797 2.298-11.204 6.475-15.225a.39.39 0 0 1 .541.561C5.995 14.543 3.78 19.75 3.78 25.333c0 11.227 9.134 20.362 20.361 20.362a20.25 20.25 0 0 0 14.264-5.828.39.39 0 0 1 .546.556 21.027 21.027 0 0 1-14.81 6.052Z" fill="#6A2EA0"/><path d="M40.466 42.341a.396.396 0 0 1-.28-.117l-4.584-4.707a.39.39 0 0 1 .56-.544l4.582 4.708a.39.39 0 0 1-.278.66ZM12.758 13.874a.396.396 0 0 1-.281-.117L7.452 8.592a.39.39 0 0 1 .559-.543l5.027 5.162a.39.39 0 0 1-.28.663ZM46.193 52.515H8.73a.39.39 0 1 1 0-.78h37.463a.39.39 0 1 1 0 .78Z" fill="#6A2EA0"/><defs><linearGradient id="a" x1="24.369" y1="8.915" x2="24.369" y2="40.573" gradientUnits="userSpaceOnUse"><stop stop-color="#FF4C84"/><stop offset=".608" stop-color="#9077D1"/><stop offset="1" stop-color="#4C90FF"/></linearGradient></defs></svg>
